X: 32406
T: Piper's Delight, The
R: polka
M: 2/4
K: Amajor
A>B cB|ce f/g/a/f/|ec c/B/A/c/|cBBe|A>B cB|ce f/g/a/e/|f/g/a/e/ f/a/e/d/|cAAe|
a>bc'a|bee c/e/|fbb a/b/|c'afe|ac'a>f|eca>e|f/g/a/e/ f/a/e/d/|cAAe|

